X: 1
T: Belles Of Tipperary, The
Z: b.maloney
S: https://thesession.org/tunes/769#setting769
R: reel
M: 4/4
L: 1/8
K: Dmaj
|:dA ~A2 DEFA|defe dBBA|~B2 AF ABde|fede fe (3eee|
dA ~A2 DEFA|defe dBBA|~B2 AF ABdB|AFEG FDD2:|
|:faab afdf|gfed (3Bcd ef|~g3 f gbag|fgaf egfe|
dB~B2 AF~F2|DFBF ABdf|gfef dBAF|Aaag fed2:|

